X: 19779
T: Jenny's Welcome To Charlie
R: reel
M: 4/4
K: Dmixolydian
D3A AGEF|GEE/E/E cEd2|D3A AGEG|.A/.B/AGA EAGE|
D/D/DDA AGEF|G/F/EcE dEcE|D2DA AGEG|.A/.B/.AGA EAD2:|
d3A .g/.f/AdA|c3A eAcA|d3A .g/.f/AdA|eaag .e/.f/.edA|
_eAdA _eAdA|c3A eAcA|G2.B/.^c/d edcA|GEcE EDD2||
f~a3 agef|g2ga gec2|e~a3 agef|g/f/eae eddf|
a2ab afdf|g2ga gecA|G2.B/.^c/d edcA|GEcE EDD2||
d2.g/.f/.e d^cAB|cAdB cAG2|Add^c Addf|eaag .e/.f/edA|
d3e d^cAB|c3d cAGE|D2.F/.G/A Addc|AAGA EAGE|D4z4||

